svgs/light/flute.svg

<svg xmlns="http://www.w3.org/2000/svg" viewBox="0 0 640 512"><!--! Font Awesome Pro 6.6.0 by @fontawesome - https://fontawesome.com License - https://fontawesome.com/license (Commercial License) Copyright 2024 Fonticons, Inc. --><path d="M160 320l416 0c17.7 0 32-14.3 32-32l0-64c0-17.7-14.3-32-32-32l-416 0 0 128zm-32 0l0-128-64 0c-17.7 0-32 14.3-32 32l0 64c0 17.7 14.3 32 32 32l64 0zM64 160l64 0 16 0 16 0 416 0c35.3 0 64 28.7 64 64l0 64c0 35.3-28.7 64-64 64l-416 0-16 0-16 0-64 0c-35.3 0-64-28.7-64-64l0-64c0-35.3 28.7-64 64-64zm256 72a24 24 0 1 1 0 48 24 24 0 1 1 0-48zm72 24a24 24 0 1 1 48 0 24 24 0 1 1 -48 0zm120-24a24 24 0 1 1 0 48 24 24 0 1 1 0-48z"/></svg>

<svg xmlns="http://www.w3.org/2000/svg" viewBox="0 0 640 512"><!--! Font Awesome Pro 6.4.0 by @fontawesome - https://fontawesome.com License - https://fontawesome.com/license (Commercial License) Copyright 2023 Fonticons, Inc. --><path d="M160 320H576c17.7 0 32-14.3 32-32V224c0-17.7-14.3-32-32-32H160V320zm-32 0V192H64c-17.7 0-32 14.3-32 32v64c0 17.7 14.3 32 32 32h64zM64 160h64 16 16H576c35.3 0 64 28.7 64 64v64c0 35.3-28.7 64-64 64H160 144 128 64c-35.3 0-64-28.7-64-64V224c0-35.3 28.7-64 64-64zm256 72a24 24 0 1 1 0 48 24 24 0 1 1 0-48zm72 24a24 24 0 1 1 48 0 24 24 0 1 1 -48 0zm120-24a24 24 0 1 1 0 48 24 24 0 1 1 0-48z"/></svg>
